X:1
T:Salve Regina
T:Josquin Desprez (c.1450 - 1521)
T:Salve Regina
T:Edición: Byrt Janssen (Granada, abril 2009)
T:Edición: Byrt Janssen (Granada, abril 2009)
T:Edición: Byrt Janssen (Granada, abril 2009)
T:Edición: Byrt Janssen (Granada, abril 2009)
T:Edición: Byrt Janssen (Granada, abril 2009)
T:Edición: Byrt Janssen (Granada, abril 2009)
T:Edición: Byrt Janssen (Granada, abril 2009)
C:Josquin Desprez
C:(c.1450 - 1521)
Z:Edición: Byrt Janssen (Granada, abril 2009)
%%score [ 1 2 3 4 ]
L:1/8
M:2/2
K:F
V:1 treble nm="SOPRANO" snm="S."
V:2 treble nm="CONTRALTO" snm="A."
V:3 treble-8 transpose=-12 nm="TENOR" snm="T."
V:4 bass nm="BAJO" snm="B."
V:1
 z8 | z8 | d4 c4 | d4 G4 | z4 d4 | c3 B AG B2- | BA G4 ^F2 | G4 z2 F2 | G2 B2 A3 G | B4 c4 | %10
w: ||Sal- *|* ve|Re-|gi- * * * *||na, mi-|se- ri- cor- *||
 d3 c BA G2 | c4 B2 A2- | AG G4 ^F2 | G4 z4 | z8 | z4 d4 | c4 d4 | G4 z4 | d4 c3 B | AG B3 A G2- | %20
w: ||* * * di-|ae:||vi-||ta,|dul- ce- *||
 G2 ^F2 G4 | z2 F2 G2 B2 | A3 G B4 | c4 d3 c | BA G2 c4 | B2 A3 G G2- | G2 ^F2 G4 | z4 G4 | %28
w: * * do,|et spes _|no- * stra,|_ sal- *|||* * ve.|Ad|
 F4 B2 d2 | c3 B d4 | z4 c2 c2- | c2 B2 c4 | d4 c2 B2 | A4 z4 | c4 B2 A2 | G3 A/B/ c4 | %36
w: _ _ _|* * te|cla- ma-|||mus,|ex- sul- *|* * * les,|
 z2 F2 G2 B2 | A2 G2 B2 A2- | AG G4 ^F2 | G4 z4 | G4 F4 | B2 d2 c3 B | d4 z4 | f4 d2 e2- | %44
w: fi- li- i|He- * * *||vae.|Ad _|_ _ _ _|te|su- spi- ra-|
 ed d4 ^c2 | d4 z2 G2 | A2 c2 B3 A | c4 z4 | G4 A4 | B4 A2 G2- | GF F4 E2 | F4 z2 F2 | G4 F4 | %53
w: |mus, ge-|men- * * *|tes|et _|flen- * *||tes In|hac _|
 z2 B2 c4 | d4 c3 B | AG B3 A G2- | G2 ^F2 G4 | z4 B4 | c4 B2 d2 | c3 B d4 | z4 z2 f2 | %61
w: la- cri-|ma- rum _|_ _ val- * *|* * le.|E-|* ia _|er- * go,|ad-|
 e2 d2 f2 e2- | ed d4 ^c2 | d4 z2 g2- | g2 g2 f2 e2- | ed d4 ^c2 | d4 z2 g2- | g2 f2 e2 d2- | %68
w: vo- ca- ta no-||stra, il-|* los tu- *||os mi-|* se- ri- cor|
 dc c4 =B2 | c4 z2 F2 | G2 B2 A2 G2- | GF F4 E2 | F4 z2 F2 | G2 B2 A2 c2 | B2 A3 G G2- | %75
w: _ _ _ _|des o-||* * co- *|los ad|nos _ con- ver-||
 G2 ^F2 G4 | z4 D4 | E2 G2 F3 E | G4 z2 F2 | G2 B2 A2 G2- | GF F4 E2 | F4 z4 | c4 B2 A2 | %83
w: * * te.|Et|Je- * * *|sum, be-|ne- di- * *||ctum|fru- ctum _|
 G3 A/B/ c4 | B2 A3 G G2- | G2 ^F2 G4 | z4 G2"^§" B2 | A2"^§" c2 B2 d2 | c3 =B d4 | z2 d3 c c2- | %90
w: ven- * * *|tris tu- * *|* * i,|no- *||* * bis|post _ _|
 c2 =B2 c4 | z2 B2 A2 G2- | GF F4 E2 | F4 z2 B2- | B2 G2 c4 | B2 A3 G G2- | G2 ^F2 G4 | z4 d4 | %98
w: _ _ hoc|ex- * si-|* * li- *|um o-|* * sten-||* * de.|O|
 c4 d4 | z2 d2 e4 | f4 g4 | f2 e3 d d2- | d2 ^c2 d4 | z4 d4 | c4 d4 | z2 d2 e4 | f4 g4 | %107
w: _ _|cle- *|||* * mens,|o|_ _|pi- *||
 f2 e3 d d2- | d2 ^c2 d4 | z4 d4 | c4 d4 | z2 G2 A4 | z2 F2 B4 | A2 G3 F F2- | F2 E2 F4 | z4 c4 | %116
w: |* * a,|o|_ _|dul- cis,|o dul-||* * cis|Vir-|
 B4 c4 | d4 z2 G2- | G2 F2 G2 B2 | A2 c2 B2 A2 | c2 B2 A2 G2 | B2 A3 G G2- | G2 ^F2 G4- | G8- | %124
w: |go, Vir-|* go Ma- ri-||||* * a.|_|
 !fermata!G8 |] %125
w: |
V:2
 z8 | z4 A4 | G4 A4 | D4 z4 | A4 G3 F | ED F3 E D2- | D2 ^C2 D4 | z2 C2 D2 F2 | E3 D F4 | G4 A3 G | %10
w: |Sal-||ve|Re- gi- *||* * na,|mi- se- ri-|cor- * *||
 FE D2 G4 | F2 E3 D D2- | D2 ^C2 D4 | z8 | z8 | A4 G4 | A4 D4 | z4 A4 | G3 F ED F2- | FE D4 ^C2 | %20
w: ||* di- ae:|||vi- *|* ta,|dul-|ce- * * * *||
 D4 z2 C2 | D2 F2 E3 D | F4 G4 | A3 G FE D2 | G4 F2 E2- | ED D4 ^C2 | D4 z4 | D4 C4 | F2 A2 G3 F | %29
w: do, et|spes _ no- *|stra, _|sal- * * * *|||ve.|Ad _|_ _ _ _|
 A4 z4 | G2 G4 F2 | G4 A4 | G2 F2 E4 | z4 G4 | F2 E2 D3 E/F/ | G4 z2 C2 | D2 F2 E2 D2 | %37
w: te|cla- ma- *||* * mus,|ex-|sul- * * * *|les, fi-|li- i He- *|
 F2 E3 D D2- | D2 ^C2 D4 | z4 D4 | C4 F2 A2 | G3 F A4 | z4 c4 | A2 B3 A A2- | A2 G2 A4 | %45
w: |* * vae.|Ad|_ _ _|* * te|su-|spi- ra- * *|* * mus,|
 z2 D2 E2 G2 | F3 E G4 | z4 D4 | E4 F4 | E2 D3 C C2- | C2 =B,2 C4 | z2 C2 D4 | C4 z2 F2 | G4 A4 | %54
w: ge- men- *|* * tes|et|_ flen-||* * tes|In hac|_ la-|cri- ma-|
 G3 F ED F2- | FE D4 C2 | D4 z4 | F4 G4 | F2 A2 G3 F | A4 z4 | z2 c2 B2 A2 | c2 B3 A A2- | %62
w: rum _ _ _ val-||le|E- *|ia _ er- *|go,|ad- vo- ca-|ta no- * *|
 A2 G2 A4 | z2 d4 d2 | c2 B3 A A2- | A2 G2 A4 | z2 d4 c2 | B2 A3 G G2- | G2 F2 G4 | z2 C2 D2 F2 | %70
w: * * stra,|il- los|tu- * * *|* * os|mi- se-|ri- cor- * *|* * des|o- * *|
 E2 D3 C C2- | C2 B,2 C4 | z2 C2 D2 F2 | E2 G2 F2 E2- | ED D4 ^C2 | D4 z4 | A,4 B,2 D2 | C3 B, D4 | %78
w: * * * cu-|* * los|ad nos _|con- ver- * *||te.|Et Je- *|* * sum,|
 z2 C2 D2 F2 | E2 D3 C C2- | C2 =B,2 C4 | z4 G4 | F2 E2 D3 E/F/ | G4 F2 E2- | ED D4 ^C2 | D4 z4 | %86
w: be- ne- di-||* * ctum|fru-|ctum _ ven- * *|* tris tu-||i,|
 D2 F2 E2 G2 | F2 A2 G3 ^F | A4 z2 A2- | AG G4 ^F2 | G4 z2 F2 | E2 D3 C C2- | C2 B,2 C4 | %93
w: no- * * *||bis post|_ _ _ _|hoc ex-|* si- * li-|* * um|
 z2 F4 D2 | G4 F2 E2- | ED D4 ^C2 | D4 z4 | A4 G4 | A4 z2 A2 | B4 c4 | d4 c2 B2- | BA A4 ^G2 | %102
w: o- *|sten- * *||de.|O _|_ cle-||||
 A4 z4 | A4 G4 | A4 z2 A2 | B4 c4 | d4 c2 B2- | BA A4 ^G2 | A4 z4 | A4 G4 | A4 z2 D2 | E4 z2 C2 | %112
w: mens,|o _|_ pi-||||a,|o _|_ dul-|cis, o|
 F4 E2 D2- | DC C4 =B,2 | C4 z4 | G4 F4 | G4 A4 | z2 D4 C2 | D2 F2 E2 G2 | F2 E2 G2 F2 | %120
w: dul- * *||cis|Vir- *|* go,|Vir- go|Ma- ri- * *||
 E2 D2 F2 E2- | ED D4 ^C2 | D8- | D8- | !fermata!D8 |] %125
w: ||a.|_||
V:3
 z4 d4 | c4 d4 | G4 z4 | z4 z2 G2 | A2 c2 B3 A | c4 d4 | G4 A4 | G4 A4 | G4 z2 c2 | B2 d2 c2 e2 | %10
w: Sal-||ve|Re-|gi- * * *|na, mi-|se- ri-|cor- di-|ae mi-|se- ri- cor- *|
 d4 G2 c2- | c2 A2 d4 | z2 G2 A4 | G4 z4 | d4 c4 | d4 G4 | z8 | z2 G2 A2 c2 | B3 A c4 | d4 G4 | %20
w: |* di- ae:|sal- ve|_|vi- *|* ta,||dul- ce- *|||
 A4 G4 | A4 G4 | z2 c2 B2 d2 | c2 e2 d4 | G2 c4 A2 | d4 z2 G2 | A4 G4 | z8 | z4 z2 B2 | c2 e2 d4 | %30
w: |* do,|et spes no-|||stra, sal-|ve. _||Ad|_ _ _|
 G4 z2 c2 | d4 c4 | z4 c4 | d4 G4 | z8 | z2 G2 A2 c2 | B2 d2 c2 G2 | A2 c2 B2 F2 | G4 A4 | G4 z4 | %40
w: te cla-|ma- mus,|cla-|ma- mus,||ex- sul- les,|fi- * * *|* * li- i|He- *|vae.|
 z8 | z8 | z2 d2 e4 | d4 z4 | z2 d2 e4 | d4 G4 | z8 | z2 c2 d4 | c4 z4 | z2 B2 c4 | F4 G4 | F4 z4 | %52
w: ||Ad te|_|su- spi-|ra- mus,||ge- men-|tes|et flen-||tes|
 z2 G2 A4 | G4 z4 | z4 z2 c2 | d2 d2 G4 | A4 G4 | z2 c2 d4 | c4 d4 | e4 d4 | g4 f4 | g4 f2 c2 | %62
w: In hac|_|la-|cri- ma- rum|val- le.|E- *|ia er-|* go,|ad- vo-|ca- ta _|
 d4 e4 | d4 G4 | z4 z2 c2 | d4 e4 | d4 z4 | z4 z2 B2 | c2 c2 d4 | c4 z4 | z8 | z2 F2 G4 | F4 z4 | %73
w: no- *|stra, _|il-|los tu-|os|mi-|se- ri- dor-|des||o- cu-|los|
 z8 | z2 F2 G2 G2 | A4 G4 | z8 | z8 | z2 G2 A4 | G4 z2 E2 | F4 G4 | F4 z2 G2 | A4 B4 | c4 z4 | %84
w: |ad nos con-|ver- te.|||Et Je-|sum, be-|ne- di-|ctum fru-|ctum _|_|
 z2 F2 G4 | A4 G4 | z4 G4 | c4 d4 | e4 d4 | z2 B2 c4 | d4 c4 | z2 B2 c4 | F4 G4 | F4 B4 | %94
w: ven- tris|tu- i,|no-||* bis|post _|_ hoc|ex- si-|li- *|um o-|
 G2 c4 A2 | d4 z2 G2 | A4 G4 | z2 c2 d4 | e4 d4 | z8 | z8 | z2 c2 d4 | e4 d4 | z2 c2 d4 | e4 d4 | %105
w: * sten- *|de, o-|sten- de.|O cle-|* mens,|||o cle-|* mens,|o pi-|* a,|
 z8 | z8 | z2 c2 d4 | e4 d4 | z2 c2 d4 | e4 d4 | G2 c3 B AG | F2 B4 G2 | c4 z2 F2 | G4 F4 | %115
w: ||o pi-|* a,|o dul-|* cis,|o dul- * * *||cis, o|dul- cis|
 z2 B2 c4 | d4 e4 | d4 z2 G2 | A4 G4 | z2 c2 d4 | c2 G2 (3A3 B c2 | (3B3 A F2 G4 | A4 G4 | %123
w: Vir- *||go, Vir-|* go,|Vir- *|* go Ma- * *|ri- * * *|* a,|
 z2 d2 d4 | !fermata!d8 |] %125
w: Ma- ri-|a.|
V:4
 A,4 G,4 | A,4 D,4 | z8 | z2 D,2 E,2 G,2 | F,3 E, G,4 | A,4 D,4 | E,4 D,4 | E,4 D,4 | %8
w: Sal- *|* ve||Re- gi- *|* * na,|mi- se-|ri- co-|di- ae,|
 z2 G,2 F,2 A,2 | G,2 B,2 A,4 | D,2 G,4 E,2 | A,4 z2 D,2 | E,4 D,4 | z4 A,4 | G,4 A,4 | D,4 z4 | %16
w: mi- se- ri-|cor- * *|* * di-|ae: sal-|ve _|vi-||ta,|
 z4 z2 D,2 | E,2 G,2 F,3 E, | G,4 A,4 | D,4 E,4 | D,4 E,4 | D,4 z2 G,2 | F,2 A,2 G,2 B,2 | %23
w: dul-|ce- * * *||||do, el|spes no- * *|
 A,4 D,2 G,2- | G,2 E,2 A,4 | z2 D,2 E,4 | D,4 z4 | z8 | z2 F,2 G,2 B,2 | A,4 D,4 | z2 G,2 A,4 | %31
w: |* * stra,|sal- ve.|_||Ad _ _|_ te|cla- ma-|
 G,4 z4 | G,4 A,4 | D,4 z4 | z4 z2 D,2 | E,2 G,2 F,2 A,2 | G,2 D,2 E,2 G,2 | F,2 C,2 D,4 | %38
w: mus,|cla- ma-|mus,|ex-|sul- les, fi- *||li- i He-|
 E,4 D,4 | z8 | z8 | z4 z2 A,2 | B,4 A,4 | z4 z2 A,2 | B,4 A,4 | D,4 z4 | z4 z2 G,2 | A,4 G,4 | %48
w: * vae.|||Ad|te _|su-|spi- ra-|mus,|ge-|men- tes|
 z4 z2 F,2 | G,4 C,4 | D,4 C,4 | z4 z2 D,2 | E,4 D,4 | z8 | z2 G,2 A,2 A,2 | D,4 E,4 | D,4 z2 G,2 | %57
w: et|flen- *|* tes|In|hac _||la- cri- ma-|rum val-|le. E-|
 A,4 G,4 | A,4 B,4 | A,4 D4 | C4 D4 | C2 G,2 A,4 | B,4 A,4 | D,4 z4 | z2 G,2 A,4 | B,4 A,4 | z8 | %67
w: * ia|er- *|go, ad-|vo- ca-|ta _ no-||stra,|il- los|tu- os||
 z2 F,2 G,2 G,2 | A,4 G,4 | z8 | z4 z2 C,2 | D,4 C,4 | z8 | z4 z2 C,2 | D,2 D,2 E,4 | D,4 z4 | z8 | %77
w: mi- se- ri-|cor- des||o-|cu- los||ad|nos con- ver-|te.||
 z4 z2 D,2 | E,4 D,4 | z2 B,,2 C,4 | D,4 C,4 | z2 D,2 E,4 | F,4 G,4 | z4 z2 C,2 | D,4 E,4 | %85
w: Et|Je- sum,|be- ne-|di- ctum|fru- ctum|_ _|ven-|tris tu-|
 D,4 z4 | D,4 G,4 | A,4 B,4 | A,4 z2 F,2 | G,4 A,4 | G,4 z2 F,2 | G,4 C,4 | D,4 C,4 | %93
w: i,|no- *||bis post|_ _|hoc ex-|si- li-|* um|
 F,4 D,2 G,2- | G,2 E,2 A,4 | z2 D,2 E,4 | D,4 z2 G,2 | A,4 B,4 | A,4 z4 | z8 | z4 z2 G,2 | %101
w: o- * sten-|* * de,|o- sten-|de. O|cle- *|mens.||o|
 A,4 =B,4 | A,4 z2 G,2 | A,4 =B,4 | A,4 z4 | z8 | z4 z2 G,2 | A,4 B,4 | A,4 z2 G,2 | A,4 B,4 | %110
w: cle- *|mens, o|pi- *|a,||o|pi- *|a, o|dul- *|
 A,4 D,2 G,2- | G,F,E,D, C,2 F,2- | F,2 D,2 G,4 | z2 C,2 D,4 | C,4 z2 F,2 | G,4 A,4 | B,4 A,4 | %117
w: cis, o dul-||* * cis,|o dul-|cis, Vir-||* go,|
 z2 D,2 E,4 | D,4 z2 G,2 | A,4 G,2 D,2 | (3E,3 F, G,2 (3F,3 E, C,2 | D,4 E,4 | D,4 z2 G,2 | G,8 | %124
w: Vir- *|go, Vir-|* * go|Ma- * * ri- * *||a, Ma-|ri-|
 !fermata!G,8 |] %125
w: a.|

